src/assets/percent.svg

<svg fill="none" height="150" viewBox="0 0 150 150" width="150" xmlns="http://www.w3.org/2000/svg"><path d="m128.046 21.9539c-14.188-14.16027-33.0131-21.9539-53.046-21.9539s-38.8584 7.79363-53.0461 21.9539c-14.16027 14.1877-21.9539 33.0132-21.9539 53.0461s7.79363 38.858 21.9539 53.046c14.1603 14.16 33.0132 21.954 53.0461 21.954s38.858-7.794 53.046-21.954c14.16-14.16 21.954-33.0131 21.954-53.046s-7.794-38.8584-21.954-53.0461z" fill="#3cc5d1"/><g fill="#000"><path d="m67.1513 60.73c4.0066 0 7.2448-3.2382 7.2448-7.2447 0-4.0066-3.2382-7.2448-7.2448-7.2448s-7.2448 3.2382-7.2448 7.2448c0 4.0065 3.2382 7.2447 7.2448 7.2447zm0-10.8671c2.0033 0 3.6224 1.6191 3.6224 3.6224s-1.6191 3.6224-3.6224 3.6224-3.6224-1.6191-3.6224-3.6224 1.6191-3.6224 3.6224-3.6224z"/><path d="m88.8586 67.9749c-4.0066 0-7.2448 3.2382-7.2448 7.2447 0 4.0066 3.2382 7.2448 7.2448 7.2448s7.2448-3.2382 7.2448-7.2448c0-4.0065-3.2382-7.2447-7.2448-7.2447zm0 10.8671c-2.0033 0-3.6224-1.6191-3.6224-3.6224s1.6191-3.6224 3.6224-3.6224 3.6224 1.6191 3.6224 3.6224-1.6191 3.6224-3.6224 3.6224z"/><path d="m91.1704 46.5432-29.98 29.98 4.6571 4.6571 29.98-29.98z"/><path d="m121.433 90.6422c-2.525-3.6498-7.053-5.0494-11.06-3.6773v-39.4896l8.37 5.4885 3.623-5.5159-16.603-10.9221v-14.27h-6.5862v9.9616l-21.1306-13.8859-45.2799 29.1164 3.5675 5.5434 9.6322-6.202v37.0746h-.4116-3.2931-28.7596v6.5862h9.8244v18.1939h-6.7783v6.587h6.7783v7.189h22.2009v-1.152l24.6158 7.629c1.7014.521 3.4577.796 5.1866.796 3.4028 0 6.7508-.988 9.6322-2.937l33.8914-22.585c2.168-1.454 3.65-3.65 4.116-6.2291.494-2.5522-.055-5.1317-1.536-7.2997zm-68.9082-48.079 25.4665-16.3831 25.7957 16.9594v47.7771l-13.6662 8.8639h-1.5642v-1.7563c0-5.6531-4.6103-10.2634-10.2635-10.2634h-16.6026l-1.3447-1.3447c-1.6465-1.6466-3.8145-2.5522-6.1196-2.5522h-1.674v-41.3007zm-13.584 73.2708h-9.0286v-25.3839h9.0286zm77.5522-19.127c-.165.8232-.631 1.5093-1.317 1.9758l-33.8916 22.5852c-2.7168 1.811-6.0922 2.305-9.2207 1.345l-26.5642-8.233v-23.9299h8.6718c.5488 0 1.0703.2195 1.4819.6037l3.2931 3.2931h19.3194c2.0307 0 3.6773 1.6466 3.6773 3.6773v1.7563h-18.2218v6.5865h28.3206l19.7582-12.7885c1.4-.9055 3.238-.5488 4.199.8233.494.6586.659 1.5093.494 2.3052z"/></g></svg>

<svg width="150" height="150" viewBox="0 0 150 150" fill="none" xmlns="http://www.w3.org/2000/svg">
<path d="M128.046 21.9539C113.858 7.79363 95.0329 0 75 0C54.9671 0 36.1416 7.79363 21.9539 21.9539C7.79363 36.1416 0 54.9671 0 75C0 95.0329 7.79363 113.858 21.9539 128.046C36.1142 142.206 54.9671 150 75 150C95.0329 150 113.858 142.206 128.046 128.046C142.206 113.886 150 95.0329 150 75C150 54.9671 142.206 36.1416 128.046 21.9539Z" fill="#3CC5D1"/>
<path d="M67.1513 60.73C71.1579 60.73 74.3961 57.4918 74.3961 53.4853C74.3961 49.4787 71.1579 46.2405 67.1513 46.2405C63.1447 46.2405 59.9065 49.4787 59.9065 53.4853C59.9065 57.4918 63.1447 60.73 67.1513 60.73ZM67.1513 49.8629C69.1546 49.8629 70.7737 51.482 70.7737 53.4853C70.7737 55.4886 69.1546 57.1077 67.1513 57.1077C65.148 57.1077 63.5289 55.4886 63.5289 53.4853C63.5289 51.482 65.148 49.8629 67.1513 49.8629Z" fill="black"/>
<path d="M88.8586 67.9749C84.852 67.9749 81.6138 71.2131 81.6138 75.2196C81.6138 79.2262 84.852 82.4644 88.8586 82.4644C92.8652 82.4644 96.1034 79.2262 96.1034 75.2196C96.1034 71.2131 92.8652 67.9749 88.8586 67.9749ZM88.8586 78.842C86.8553 78.842 85.2362 77.2229 85.2362 75.2196C85.2362 73.2163 86.8553 71.5972 88.8586 71.5972C90.8619 71.5972 92.481 73.2163 92.481 75.2196C92.481 77.2229 90.8619 78.842 88.8586 78.842Z" fill="black"/>
<path d="M91.1704 46.5432L61.1904 76.5232L65.8475 81.1803L95.8275 51.2003L91.1704 46.5432Z" fill="black"/>
<path d="M121.433 90.6422C118.908 86.9924 114.38 85.5928 110.373 86.9649V47.4753L118.743 52.9638L122.366 47.4479L105.763 36.5258V22.2558H99.1768V32.2174L78.0462 18.3315L32.7663 47.4479L36.3338 52.9913L45.966 46.7893V83.8639H45.5544H42.2613H13.5017V90.4501H23.3261V108.644H16.5478V115.231H23.3261V122.42H45.527V121.268L70.1428 128.897C71.8442 129.418 73.6005 129.693 75.3294 129.693C78.7322 129.693 82.0802 128.705 84.9616 126.756L118.853 104.171C121.021 102.717 122.503 100.521 122.969 97.9419C123.463 95.3897 122.914 92.8102 121.433 90.6422ZM52.5248 42.5632L77.9913 26.1801L103.787 43.1395V90.9166L90.1208 99.7805H88.5566V98.0242C88.5566 92.3711 83.9463 87.7608 78.2931 87.7608H61.6905L60.3458 86.4161C58.6993 84.7695 56.5313 83.8639 54.2262 83.8639H52.5522V42.5632H52.5248ZM38.9408 115.834H29.9122V90.4501H38.9408V115.834ZM116.493 96.707C116.328 97.5302 115.862 98.2163 115.176 98.6828L81.2844 121.268C78.5676 123.079 75.1922 123.573 72.0637 122.613L45.4995 114.38V90.4501H54.1713C54.7201 90.4501 55.2416 90.6696 55.6532 91.0538L58.9463 94.3469H78.2657C80.2964 94.3469 81.943 95.9935 81.943 98.0242V99.7805H63.7212V106.367H92.0418L111.8 93.5785C113.2 92.673 115.038 93.0297 115.999 94.4018C116.493 95.0604 116.658 95.9111 116.493 96.707Z" fill="black"/>
</svg>
